public/hexagon.svg

<svg width="447" height="189" viewBox="0 0 447 189" fill="none" xmlns="http://www.w3.org/2000/svg">
<path d="M238.884 177.096L260.786 164.458L281.417 164.458L238.884 189L196.352 164.458L216.982 164.458L238.884 177.096Z" fill="#FF0049"/>
<path d="M41.2285 63.0463L148.488 124.936L127.857 124.936L30.916 69L30.916 25.494L41.2285 25.494L41.2285 63.0463Z" fill="#FF0049"/>
<path d="M41.2285 -22.6335L30.916 -22.6335L30.916 -64.7052L41.2285 -64.7052L41.2285 -22.6335Z" fill="#FF0049"/>
<path d="M436.54 -22.6334L446.852 -22.6334L446.852 -66.3521C445.523 -66.9279 444.165 -67.2281 442.801 -67.5297C440.702 -67.9936 438.588 -68.461 436.54 -69.94L436.54 -22.6334Z" fill="#FF0049"/>
<path d="M446.852 25.4941L436.54 25.4941L436.54 63.0463L329.28 124.936L349.911 124.936L446.852 69L446.852 25.4941Z" fill="#FF0049"/>
<path d="M79.9939 -187.414L59.3632 -187.414L107.42 -215.143L128.05 -215.143L79.9939 -187.414Z" fill="#FF0049"/>
<path d="M159.536 -233.311L138.905 -233.311L238.884 -291L335.458 -235.877L332.111 -225.303L238.884 -279.096L159.536 -233.311Z" fill="#FF0049"/>
<path d="M436.54 -155.618C436.54 -154.812 436.649 -153.944 436.763 -153.039C437.12 -150.203 437.522 -147.006 434.752 -144.227C448.765 -142.474 441.753 -133.072 434.752 -129.725C441.115 -127.175 446.144 -125.11 446.852 -124.307L446.852 -171L416.255 -188.689L416.255 -177.215L436.54 -165.046L436.54 -155.618Z" fill="#FF0049"/>
<path d="M127.772 124.936L20.5127 63.0463L20.5127 25.494L10.2002 25.494L10.2002 69L107.142 124.936L127.772 124.936Z" fill="#00D0F6"/>
<path d="M240.07 164.458L218.168 177.096L196.266 164.458L175.636 164.458L218.168 189L260.701 164.458L240.07 164.458Z" fill="#00D0F6"/>
<path d="M308.564 124.936L415.824 63.0463L415.824 25.4941L426.136 25.4941L426.136 69L329.195 124.936L308.564 124.936Z" fill="#00D0F6"/>
<path d="M10.2002 -22.6335L20.5127 -22.6335L20.5127 -64.7052L10.2002 -64.7052L10.2002 -22.6335Z" fill="#00D0F6"/>
<path d="M86.7038 -215.143L38.6474 -187.414L59.2781 -187.414L107.334 -215.143L86.7038 -215.143Z" fill="#00D0F6"/>
<path d="M138.82 -233.311L118.189 -233.311L218.168 -291L332.909 -223.112L330.36 -215.781L218.168 -279.096L138.82 -233.311Z" fill="#00D0F6"/>
<path d="M415.824 -22.6334L426.136 -22.6334L426.136 -75.9139C424.046 -76.8197 421.883 -78.7576 419.736 -80.6813C418.42 -81.8613 417.109 -83.036 415.824 -83.9639L415.824 -22.6334Z" fill="#00D0F6"/>
<path d="M137.97 124.936L30.7107 63.0463L30.7107 25.494L20.3982 25.494L20.3982 69L117.34 124.936L137.97 124.936Z" fill="white"/>
<path d="M250.268 164.458L228.366 177.096L206.464 164.458L185.834 164.458L228.366 189L270.899 164.458L250.268 164.458Z" fill="white"/>
<path d="M318.762 124.936L426.022 63.0463L426.022 25.4941L436.334 25.4941L436.334 69L339.393 124.936L318.762 124.936Z" fill="white"/>
<path d="M33.8979 -22.6335L17.211 -22.6335L17.211 -64.7052L33.8979 -64.7052L33.8979 -22.6335Z" fill="white"/>
<path d="M96.9018 -215.143L48.8454 -187.414L69.4761 -187.414L117.532 -215.143L96.9018 -215.143Z" fill="white"/>
<path d="M128.387 -233.311L149.018 -233.311L228.366 -279.096L330.677 -220.061L333.864 -230.126L228.366 -291L128.387 -233.311Z" fill="white"/>
<path d="M436.334 -22.6334L426.022 -22.6334L426.022 -76.3145C429.401 -73.874 432.961 -71.957 436.334 -70.4955L436.334 -22.6334Z" fill="white"/>
<path d="M435.332 -128.699C435.319 -128.941 435.751 -129.412 436.334 -129.936L436.334 -128.439C436.144 -128.483 435.957 -128.523 435.774 -128.558C435.439 -128.621 435.336 -128.704 435.332 -128.699Z" fill="white"/>
<path d="M426.022 -155.618C430.898 -156.516 434.57 -155.025 436.334 -153.024L436.334 -171L417.211 -182.034C412.749 -184.609 413.902 -172.04 416.414 -170.59L426.022 -165.046L426.022 -155.618Z" fill="white"/>
<path d="M202.726 164.458L134.231 124.936L154.862 124.936L223.356 164.458L202.726 164.458Z" fill="#FF0049"/>
<path d="M267.16 164.458L335.654 124.936L356.285 124.936L287.791 164.458L267.16 164.458Z" fill="#FF0049"/>
<path d="M187.747 164.459L119.253 124.937L130.322 124.937L198.816 164.459L187.747 164.459Z" fill="#00D0F6"/>
<path d="M252.182 164.459L320.676 124.937L331.745 124.937L263.251 164.459L252.182 164.459Z" fill="#00D0F6"/>
<path d="M195.396 164.458L126.901 124.936L147.532 124.936L216.026 164.458L195.396 164.458Z" fill="white"/>
<path d="M259.83 164.458L328.324 124.936L348.955 124.936L280.461 164.458L259.83 164.458Z" fill="white"/>
<path d="M31.3466 25.4941L21.0342 25.4941L21.0342 -22.6333L31.3466 -22.6333L31.3466 25.4941Z" fill="#FF0049"/>
<path d="M426.658 -22.6333L426.658 25.4942L436.97 25.4942L436.97 -22.6333L426.658 -22.6333Z" fill="#FF0049"/>
<path d="M14.4559 25.4941L0 25.4941L4.54858e-06 -22.6333L14.4559 -22.6333L14.4559 25.4941Z" fill="#00D0F6"/>
<path d="M412.317 -22.6333L412.317 25.4942L420.08 25.4942L420.08 -22.6333L412.317 -22.6333Z" fill="#00D0F6"/>
<path d="M24.0175 25.4941L13.7051 25.4941L13.7051 -22.6333L24.0176 -22.6333L24.0175 25.4941Z" fill="white"/>
<path d="M429.641 -22.6333L419.329 -22.6333L419.329 25.4942L429.641 25.4942L429.641 -22.6333Z" fill="white"/>
</svg>

<svg width="447" height="189" fill="none" xmlns="http://www.w3.org/2000/svg"><path d="M238.884 177.096l21.902-12.638h20.631L238.884 189l-42.532-24.542h20.63l21.902 12.638zM41.228 63.046l107.26 61.89h-20.631L30.916 69V25.494h10.312v37.552zM41.228-22.634H30.916v-42.071h10.312v42.072zM436.54-22.633h10.312v-43.72c-1.329-.575-2.687-.875-4.051-1.177-2.099-.464-4.213-.931-6.261-2.41v47.307zM446.852 25.494H436.54v37.552l-107.26 61.89h20.631L446.852 69V25.494zM79.994-187.414h-20.63l48.056-27.729h20.63l-48.056 27.729zM159.536-233.311h-20.631L238.884-291l96.574 55.123-3.347 10.574-93.227-53.793-79.348 45.785zM436.54-155.618c0 .806.109 1.674.223 2.579.357 2.836.759 6.033-2.011 8.812 14.013 1.753 7.001 11.155 0 14.502 6.363 2.55 11.392 4.615 12.1 5.418V-171l-30.597-17.689v11.474l20.285 12.169v9.428z" fill="#FF0049"/><path d="M127.771 124.936l-107.26-61.89V25.494H10.2V69l96.942 55.936h20.63zM240.069 164.458l-21.902 12.638-21.902-12.638h-20.63L218.167 189l42.533-24.542h-20.631zM308.563 124.936l107.26-61.89V25.494h10.313L426.135 69l-96.941 55.936h-20.631zM10.2-22.634h10.312v-42.071H10.199v42.072zM86.703-215.143l-48.057 27.729h20.631l48.057-27.729H86.703zM138.819-233.311h-20.631L218.167-291l114.741 67.888-2.549 7.331-112.192-63.315-79.348 45.785zM415.823-22.633h10.313v-53.28c-2.091-.907-4.254-2.845-6.401-4.768-1.316-1.18-2.627-2.355-3.912-3.283v61.33z" fill="#00D0F6"/><path d="M137.97 124.936L30.71 63.046V25.494H20.399V69l96.942 55.936h20.63zM250.268 164.458l-21.902 12.638-21.902-12.638h-20.63L228.366 189l42.533-24.542h-20.631zM318.762 124.936l107.26-61.89V25.494h10.312V69l-96.941 55.936h-20.631zM33.898-22.634H17.21v-42.071h16.687v42.072zM96.902-215.143l-48.057 27.729h20.631l48.056-27.729h-20.63zM128.387-233.311h20.631l79.348-45.785 102.311 59.035 3.187-10.065L228.366-291l-99.979 57.689zM436.334-22.633h-10.312v-53.681c3.379 2.44 6.939 4.357 10.312 5.818v47.863zM435.332-128.699c-.013-.242.419-.713 1.002-1.237v1.497c-.19-.044-.377-.084-.56-.119-.336-.063-.438-.146-.442-.141zM426.022-155.618c4.876-.898 8.548.593 10.312 2.594V-171l-19.123-11.034c-4.462-2.575-3.309 9.994-.797 11.444l9.608 5.544v9.428z" fill="#fff"/><path d="M202.727 164.458l-68.495-39.522h20.631l68.494 39.522h-20.63zM267.161 164.458l68.494-39.522h20.631l-68.494 39.522h-20.631z" fill="#FF0049"/><path d="M187.746 164.459l-68.494-39.522h11.069l68.494 39.522h-11.069zM252.181 164.459l68.494-39.522h11.069l-68.494 39.522h-11.069z" fill="#00D0F6"/><path d="M195.396 164.458l-68.494-39.522h20.631l68.494 39.522h-20.631zM259.831 164.458l68.494-39.522h20.631l-68.494 39.522h-20.631z" fill="#fff"/><path d="M31.348 25.494H21.035v-48.127h10.313v48.127zM426.659-22.633v48.127h10.312v-48.127h-10.312z" fill="#FF0049"/><path d="M14.456 25.494H0v-48.127h14.456v48.127zM412.317-22.633v48.127h7.763v-48.127h-7.763z" fill="#00D0F6"/><path d="M24.017 25.494H13.705v-48.127h10.313v48.127zM429.641-22.633h-10.312v48.127h10.312v-48.127z" fill="#fff"/></svg>
